svgs/sharp-light/archway.svg

<svg xmlns="http://www.w3.org/2000/svg" viewBox="0 0 512 512"><!--! Font Awesome Pro 6.6.0 by @fontawesome - https://fontawesome.com License - https://fontawesome.com/license (Commercial License) Copyright 2024 Fonticons, Inc. --><path d="M0 32l16 0 16 0 32 0 384 0 32 0 16 0 16 0 0 32-16 0-16 0 0 384 16 0 16 0 0 32-16 0-16 0-32 0-24 0-16 0-24 0-32 0 0-32 0-96c0-53-43-96-96-96s-96 43-96 96l0 96 0 32-32 0-24 0-16 0-24 0-32 0-16 0L0 480l0-32 16 0 16 0L32 64 16 64 0 64 0 32zM64 64l0 64 384 0 0-64L64 64zm0 96l0 288 24 0 16 0 24 0 0-96c0-70.7 57.3-128 128-128s128 57.3 128 128l0 96 24 0 16 0 24 0 0-288L64 160z"/></svg>

<svg xmlns="http://www.w3.org/2000/svg" viewBox="0 0 512 512"><!--! Font Awesome Pro 6.4.0 by @fontawesome - https://fontawesome.com License - https://fontawesome.com/license (Commercial License) Copyright 2023 Fonticons, Inc. --><path d="M0 32H16 32 64 448h32 16 16V64H496 480V448h16 16v32H496 480 448 424 408 384 352V448 352c0-53-43-96-96-96s-96 43-96 96v96 32H128 104 88 64 32 16 0V448H16 32V64H16 0V32zM64 64v64H448V64H64zm0 96V448H88h16 24V352c0-70.7 57.3-128 128-128s128 57.3 128 128v96h24 16 24V160H64z"/></svg>
